src/Pure/16/symbolic/apps/org.gnome.Settings-device-diagnostics-symbolic.svg

<?xml version="1.0" encoding="UTF-8" standalone="no"?>
<svg
   width="16px"
   height="16px"
   version="1.1"
   viewBox="0 0 16 16"
   id="svg3"
   sodipodi:docname="org.gnome.Settings-device-diagnostics-symbolic.svg"
   inkscape:version="1.4.2 (ebf0e940d0, 2025-05-08)"
   xmlns:inkscape="http://www.inkscape.org/namespaces/inkscape"
   xmlns:sodipodi="http://sodipodi.sourceforge.net/DTD/sodipodi-0.dtd"
   xmlns="http://www.w3.org/2000/svg"
   xmlns:svg="http://www.w3.org/2000/svg">
  <defs
     id="defs3">
     <style
        id="current-color-scheme"
        type="text/css">
        .ColorScheme-Text { color:#363636; }
     </style>
  </defs>
  <sodipodi:namedview
     id="namedview3"
     pagecolor="#ffffff"
     bordercolor="#000000"
     borderopacity="0.25"
     inkscape:showpageshadow="2"
     inkscape:pageopacity="0.0"
     inkscape:pagecheckerboard="0"
     inkscape:deskcolor="#d1d1d1"
     inkscape:zoom="49.6875"
     inkscape:cx="8"
     inkscape:cy="8"
     inkscape:window-width="1920"
     inkscape:window-height="1010"
     inkscape:window-x="0"
     inkscape:window-y="0"
     inkscape:window-maximized="1"
     inkscape:current-layer="svg3" />
  <path
     id="path1"
     style="fill:currentColor"
     class="ColorScheme-Text"
     d="M 2 2 C 0.892 2 0 2.892 0 4 L 0 11 C 0 12.108 0.892 13 2 13 L 14 13 C 15.108 13 16 12.108 16 11 L 16 4 C 16 2.892 15.108 2 14 2 L 2 2 z M 2 3 L 14 3 C 14.554 3 15 3.446 15 4 L 15 7 L 11.359375 7 C 11.160155 7 10.980464 7.1210913 10.902344 7.3007812 L 10.515625 8.1953125 L 8.9648438 4.3125 C 8.8867188 4.11719 8.695315 3.99219 8.484375 4 C 8.273435 4.007812 8.0898438 4.14453 8.0273438 4.34375 L 6.5 8.9179688 L 5.9726562 7.34375 C 5.9062503 7.13672 5.71485 7 5.5 7 L 1 7 L 1 4 C 1 3.446 1.446 3 2 3 z M 8.5429688 5.9570312 L 10.035156 9.6875 C 10.109376 9.875 10.289068 9.99609 10.492188 10 C 10.695308 10.0039 10.878911 9.8828087 10.957031 9.6992188 L 11.6875 8 L 15 8 L 15 11 C 15 11.554 14.554 12 14 12 L 2 12 C 1.446 12 1 11.554 1 11 L 1 8 L 5.140625 8 L 6.0273438 10.65625 C 6.0937497 10.86328 6.28515 11 6.5 11 C 6.71485 11 6.9062462 10.86328 6.9726562 10.65625 L 8.5429688 5.9570312 z M 4.5 14 C 4.223 14 4 14.223 4 14.5 C 4 14.777 4.223 15 4.5 15 L 11.5 15 C 11.777 15 12 14.777 12 14.5 C 12 14.223 11.777 14 11.5 14 L 4.5 14 z " />
</svg>

<svg width="16px" height="16px" version="1.1" viewBox="0 0 16 16" xmlns="http://www.w3.org/2000/svg">
 <path d="m8.4844 4c-0.21094 0.007812-0.39453 0.14453-0.45703 0.34375l-1.5273 4.5742-0.52734-1.5742c-0.066406-0.20703-0.25781-0.34375-0.47266-0.34375h-4.5v1h4.1406l0.88672 2.6562c0.066406 0.20703 0.25781 0.34375 0.47266 0.34375s0.40625-0.13672 0.47266-0.34375l1.5703-4.6992 1.4922 3.7305c0.07422 0.1875 0.25391 0.30859 0.45703 0.3125 0.20312 0.0039 0.38672-0.11719 0.46484-0.30078l0.73047-1.6992h3.3125v-1h-3.6406c-0.19922 0-0.37891 0.12109-0.45703 0.30078l-0.38672 0.89453-1.5508-3.8828c-0.078125-0.19531-0.26953-0.32031-0.48047-0.3125z" fill="#363636"/>
 <path d="m4.5 14h7c0.277 0 0.5 0.223 0.5 0.5s-0.223 0.5-0.5 0.5h-7c-0.277 0-0.5-0.223-0.5-0.5s0.223-0.5 0.5-0.5z" fill="#363636"/>
 <path d="m2 2c-1.108 0-2 0.892-2 2v7c0 1.108 0.892 2 2 2h12c1.108 0 2-0.892 2-2v-7c0-1.108-0.892-2-2-2zm0 1h12c0.554 0 1 0.446 1 1v7c0 0.554-0.446 1-1 1h-12c-0.554 0-1-0.446-1-1v-7c0-0.554 0.446-1 1-1z" fill="#363636"/>
</svg>
